X:114
T:My Lodging Is on the Cold Ground
N:"Slow with feeling"
B:O'Neill's 114
Z:Transcribed by henrik.norbeck@mailbox.swipnet.se
M:6/8
L:1/8
K:G
B/A/|GAG GBd|ceg g2 f/e/|dcB ABAGA|B3- B2B/A/|
GAG GBd|ceg Hg2 f/e/|dgB ABAGA|G3- G2||
d/c/|Bd.g g2 d/d/|ec.g g2 f/e/|dcB ABAGA|B3- B2B/A/|
GAG GBd|ceg Hg2 f/e/|dgB ABAGA|G3- G2||
